X: 3158
Q: "Reel."
M: C
L: 1/8
K: F
uC |\
fecA GFEG | FCDE F3 :|\
a |\
(fc) (f/g/a) gdde | (fc) (f/g/a) cfaf |
gfaf gfdg | fcde f3a |\
(fc) (f/g/a) gdde | fadf cfAc |\


